X: 1
T: the High Road to Linton
C: trad.
%D:
R: reel
S: Fiddle Hell Online 2022-4-10 handout for Andrea Beaton workshop
Z: 2022 John Chambers <jc:trillian.mit.edu>
M: 4/4
L: 1/8
K: Amix=g
"^A"|: ceef a2ae | f2fe a2ae | ceef a2ae | faec B2Ad :|
"^B"|: ceeg fddf | ecce fBBd | ceeg fddf | ecac B2A2 :|
"^C"|: a2a2 efa2 | efae faef | a2a2 efae | faec B2A2 :|
"^D"|: c2ec defd | c2ec BcdB | c2ec defg | afec B2A2 :|
